X:1
T:Title
%%score ( 1 2 ) 3
L:1/8
Q:1/4=100
M:6/4
K:Bb
V:1 treble nm="Strings 1, Treble"
V:2 treble 
V:3 bass nm="Strings 1, Bass"
V:1
 [DF]2 [B,D]2 [CE]2 [DF]2 [DF]2 [DF]>[DF] | [EG]2 [EB]2 [EB]2 [DB]4 [DF]>[DF] | %2
w: 1.~Long~ have~ they~ wait ed~ in~ the~|dark~ hea then~ lands~ For~ the~|
 [DF]2 [FB]2 [Fc]2 [Fd]2 [FB]2 [=EB]>[EB] | [Fc]2 [Fc]2 [Fd]2 .c2- .[Ec]4 | %4
w: pure~ liv ing~ wa ter~ from~ the~|dear~ Sav ior's~ hands;~ *|
 [DF]2 [B,D]2 [CE]2 [DF]2 [DF]2 [DF]>[DF] | [EG]2 [EB]2 [EB]2 [DB]4 [DF]>[DF] | %6
w: Still~ they~ are~ wait ing~ for~ the~|gos pel~ to~ come,~ Let~ us~|
 [DF]2 [FB]2 [Fc]2 [Fd]2 [DB]2 [DB]>[DB] | [Ec]2 [DB]2 [EA]2 .[DB]6 | %8
w: has ten~ to~ tell~ them~ of~ our~|heav en ly~ home.~|
 [DF]2 [DF]2 [DF]2 [EG]2 [DF]2 [DF]2 | [DB]2 [DB]2 [EB]2 .[DB]6 | %10
w: ||
 [Ec]2 [Ec]2 [Ec]2 [Ec]2 [DB]2 [DB]2 | [Fd]2 [Fd]2 [Fd]2 .[Fd]6 | %12
w: ||
 [Ge]2 [Fd]2 [=E_d]2 [F=d]2 [FB]2 F2 | [EG]2 [EB]2 [EB]2 [DB]4 [EG]2 | %14
w: ||
 [DF]2 [FB]2 [Fc]2 [Fd]2 [DB]2 [DB]2 | [Ec]2 [DB]2 [EA]2 .[DB]6 |] %16
w: ||
V:2
 x12 | x12 | x12 | z6 .F6 | x12 | x12 | x12 | x12 | x12 | x12 | x12 | x12 | x12 | x12 | x12 | %15
 x12 |] %16
V:3
 [B,,B,]2 [B,,F,]2 [B,,F,]2 [B,,B,]2 [B,,B,]2 [B,,B,]>[B,,B,] | %1
 [E,B,]2 [E,G,]2 [E,G,]2 [B,,F,]4 [B,,B,]>[B,,B,] | %2
 [B,,B,]2 [D,B,]2 [F,A,]2 B,2 [B,D]2 [G,D]>[G,D] | [F,A,]2 [F,A,]2 [F,B,]2 .[F,A,]6 | %4
 [B,,B,]2 [B,,F,]2 [B,,F,]2 [B,,B,]2 [B,,B,]2 [B,,B,]>[B,,B,] | %5
 [E,B,]2 [E,G,]2 [E,G,]2 [B,,F,]4 [B,,B,]>[B,,B,] | %6
 [B,,B,]2 [D,B,]2 [F,A,]2 B,2 B,2 [G,B,]>[G,B,] | [F,A,]2 [F,B,]2 [F,C]2 .[B,,B,]6 | %8
 [B,,B,]2 [B,,B,]2 [B,,B,]2 [B,,B,]2 [B,,B,]2 [B,,B,]2 | [B,,B,]2 [B,,F,]2 [B,,G,]2 .[B,,F,]6 | %10
 [F,A,]2 [F,A,]2 [F,A,]2 [F,A,]2 B,2 B,2 | B,2 [F,B,]2 [D,B,]2 .[B,,B,]6 | %12
 B,2 B,2 B,2 B,2 [B,D]2 [D,B,]2 | [E,B,]2 [E,G,]2 [E,G,]2 [B,,F,]4 [B,,B,]2 | %14
 [B,,B,]2 [D,B,]2 [F,A,]2 B,2 B,2 [G,B,]2 | [F,A,]2 [F,B,]2 [F,C]2 .[B,,B,]6 |] %16

